outputs/icons/general/list_form_round.svg

<svg xmlns="http://www.w3.org/2000/svg" width="1200" height="1200" fill="none"><path fill="#000" d="M927.255 109.082H272.709a54.546 54.546 0 0 0-54.545 54.545v872.728a54.54 54.54 0 0 0 54.545 54.545h654.546a54.546 54.546 0 0 0 54.545-54.545V163.627a54.54 54.54 0 0 0-54.545-54.545M872.71 981.81H327.255V218.173H872.71zm-109.09-600c0-30.125-24.42-54.546-54.545-54.546H490.892c-30.125 0-54.546 24.421-54.546 54.546 0 30.124 24.421 54.545 54.546 54.545h218.183c30.125 0 54.545-24.421 54.545-54.545m0 436.365c0-30.125-24.42-54.545-54.545-54.545H490.892c-30.125 0-54.546 24.42-54.546 54.545s24.421 54.545 54.546 54.545h218.183c30.125 0 54.545-24.42 54.545-54.545m0-218.185c0-30.125-24.42-54.545-54.545-54.545H490.892c-30.125 0-54.546 24.42-54.546 54.545s24.421 54.545 54.546 54.545h218.183c30.125 0 54.545-24.42 54.545-54.545"/></svg>

<svg width="1200" height="1200" viewBox="0 0 1200 1200" fill="none" xmlns="http://www.w3.org/2000/svg"><path d="M927.255 109.082H272.709C258.243 109.082 244.369 114.829 234.14 125.058C223.911 135.287 218.164 149.161 218.164 163.627V1036.355C218.164 1050.82 223.911 1064.695 234.14 1074.925C244.369 1085.155 258.243 1090.9 272.709 1090.9H927.255C941.72 1090.9 955.595 1085.155 965.825 1074.925C976.055 1064.695 981.8 1050.82 981.8 1036.355V163.627C981.8 149.161 976.055 135.287 965.825 125.058C955.595 114.829 941.72 109.082 927.255 109.082ZM872.71 981.81H327.255V218.173H872.71V981.81ZM763.62 381.81C763.62 351.685 739.2 327.264 709.075 327.264H490.892C460.767 327.264 436.346 351.685 436.346 381.81C436.346 411.934 460.767 436.355 490.892 436.355H709.075C739.2 436.355 763.62 411.934 763.62 381.81ZM763.62 818.175C763.62 788.05 739.2 763.63 709.075 763.63H490.892C460.767 763.63 436.346 788.05 436.346 818.175C436.346 848.3 460.767 872.72 490.892 872.72H709.075C739.2 872.72 763.62 848.3 763.62 818.175ZM763.62 599.99C763.62 569.865 739.2 545.445 709.075 545.445H490.892C460.767 545.445 436.346 569.865 436.346 599.99C436.346 630.115 460.767 654.535 490.892 654.535H709.075C739.2 654.535 763.62 630.115 763.62 599.99Z" fill="black"/></svg>
